;FLAVOR:UltiGCode
;TIME:355
;MATERIAL:270
;MATERIAL2:286
;NOZZLE_DIAMETER:0.4
;POSTPROCESSED
;Generated with Cura_SteamEngine 2.3.1
;LAYER_COUNT:1
;LAYER:0
M107
G10
G0 F6000 X27.151 Y65.7 Z.3
;TYPE:WALL-INNER
G11
G1 F1200 X27.551 Y65.7 E0.048
G1 X27.551 Y192.999 E15.32388
G1 X27.151 Y192.999 E15.37188
G1 X27.151 Y65.7 E30.64776
G0 F6000 X27.221 Y65.77
G0 X27.481 Y65.77
G0 X27.951 Y65.4
;TYPE:WALL-OUTER
G1 F1200 X27.951 Y68.5 E31.01976
G1 X39.951 Y68.5 E32.45976
G1 X39.951 Y68.6 E32.47176
G1 X27.951 Y68.6 E32.83176
G1 X27.951 Y71.7 E33.20376
G1 X39.951 Y71.7 E34.64376
G1 X39.951 Y71.8 E34.65576
G1 X27.951 Y71.8 E35.01576
G1 X27.951 Y74.9 E35.38776
G1 X39.951 Y74.9 E36.82776
G1 X39.951 Y75 E36.83976
G1 X27.951 Y75 E37.19976
G1 X27.951 Y78.101 E37.57188
G1 X39.951 Y78.101 E39.01188
G1 X39.951 Y78.201 E39.02388
G1 X27.951 Y78.201 E39.38388
G1 X27.951 Y81.3 E39.75576
G1 X39.951 Y81.3 E41.19576
G1 X39.951 Y81.4 E41.20776
G1 X27.951 Y81.4 E41.56776
G1 X27.951 Y84.5 E41.93976
G1 X39.951 Y84.5 E43.37976
G1 X39.951 Y84.6 E43.39176
G1 X27.951 Y84.6 E43.75176
G1 X27.951 Y87.7 E44.12376
G1 X39.951 Y87.7 E45.56376
G1 X39.951 Y87.8 E45.57576
G1 X27.951 Y87.8 E45.93576
G1 X27.951 Y90.9 E46.30776
G1 X39.951 Y90.9 E47.74776
G1 X39.951 Y91 E47.75976
G1 X27.951 Y91 E48.11976
G1 X27.951 Y94.101 E48.49188
G1 X39.951 Y94.101 E49.93188
G1 X39.951 Y94.201 E49.94388
G1 X27.951 Y94.201 E50.30388
G1 X27.951 Y97.3 E50.67576
G1 X39.951 Y97.3 E52.11576
G1 X39.951 Y97.4 E52.12776
G1 X27.951 Y97.4 E52.48776
G1 X27.951 Y100.5 E52.85976
G1 X39.951 Y100.5 E54.29976
G1 X39.951 Y100.6 E54.31176
G1 X27.951 Y100.6 E54.67176
G1 X27.951 Y103.7 E55.04376
G1 X39.951 Y103.7 E56.48376
G1 X39.951 Y103.8 E56.49576
G1 X27.951 Y103.8 E56.85576
G1 X27.951 Y106.9 E57.22776
G1 X39.951 Y106.9 E58.66776
G1 X39.951 Y107 E58.67976
G1 X27.951 Y107 E59.03976
G1 X27.951 Y110.101 E59.41188
G1 X39.951 Y110.101 E60.85188
G1 X39.951 Y110.201 E60.86388
G1 X27.951 Y110.201 E61.22388
G1 X27.951 Y113.299 E61.59564
G1 X39.951 Y113.299 E63.03564
G1 X39.951 Y113.399 E63.04764
G1 X27.951 Y113.399 E63.40764
G1 X27.951 Y116.499 E63.77964
G1 X39.951 Y116.499 E65.21964
G1 X39.951 Y116.599 E65.23164
G1 X27.951 Y116.599 E65.59164
G1 X27.951 Y119.7 E65.96376
G1 X39.951 Y119.7 E67.40376
G1 X39.951 Y119.8 E67.41576
G1 X27.951 Y119.8 E67.77576
G1 X27.951 Y122.899 E68.14764
G1 X39.956 Y122.899 E69.58824
G1 X39.956 Y122.939 E69.59304
G0 X39.951 Y122.939
G1 X39.951 Y122.999 E69.59999
G1 X27.951 Y122.999 E69.95976
G1 X27.951 Y126.1 E70.33188
G1 X39.956 Y126.1 E71.77248
G1 X39.956 Y126.18 E71.78208
G0 X39.951 Y126.18
G1 X39.951 Y126.2 E71.78419
G1 X27.951 Y126.2 E72.14397
G1 X27.951 Y129.299 E72.51585
G1 X39.956 Y129.299 E73.95645
G1 X39.956 Y129.399 E73.96845
G1 X27.951 Y129.399 E74.3286
G1 X27.951 Y132.499 E74.7006
G1 X39.951 Y132.499 E76.1406
G1 X39.951 Y132.519 E76.143
G0 X39.956 Y132.519
G1 X39.956 Y132.599 E76.15236
G1 X27.951 Y132.599 E76.51274
G1 X27.951 Y135.7 E76.88486
G1 X39.951 Y135.7 E78.32486
G1 X39.951 Y135.76 E78.33206
G0 X39.956 Y135.76
G1 X39.956 Y135.8 E78.33659
G1 X27.951 Y135.8 E78.69696
G1 X27.951 Y138.899 E79.06884
G1 X39.951 Y138.899 E80.50884
G1 X39.951 Y138.999 E80.52084
G1 X27.951 Y138.999 E80.88084
G1 X27.951 Y142.1 E81.25296
G1 X39.951 Y142.1 E82.69296
G1 X39.951 Y142.2 E82.70496
G1 X27.951 Y142.2 E83.06496
G1 X27.951 Y145.299 E83.43684
G1 X39.951 Y145.299 E84.87684
G1 X39.951 Y145.399 E84.88884
G1 X27.951 Y145.399 E85.24884
G1 X27.951 Y148.499 E85.62084
G1 X39.951 Y148.499 E87.06084
G1 X39.951 Y148.599 E87.07284
G1 X27.951 Y148.599 E87.43284
G1 X27.951 Y151.699 E87.80484
G1 X39.951 Y151.699 E89.24484
G1 X39.951 Y151.799 E89.25684
G1 X27.951 Y151.799 E89.61684
G1 X27.951 Y154.9 E89.98896
G1 X39.951 Y154.9 E91.42896
G1 X39.951 Y155 E91.44096
G1 X27.951 Y155 E91.80096
G1 X27.951 Y158.1 E92.17296
G1 X39.951 Y158.1 E93.61296
G1 X39.951 Y158.2 E93.62496
G1 X27.951 Y158.2 E93.98496
G1 X27.951 Y161.299 E94.35684
G1 X39.951 Y161.299 E95.79684
G1 X39.951 Y161.399 E95.80884
G1 X27.951 Y161.399 E96.16884
G1 X27.951 Y164.499 E96.54084
G1 X39.951 Y164.499 E97.98084
G1 X39.951 Y164.599 E97.99284
G1 X27.951 Y164.599 E98.35284
G1 X27.951 Y167.699 E98.72484
G1 X39.951 Y167.699 E100.16484
G1 X39.951 Y167.799 E100.17684
G1 X27.951 Y167.799 E100.53684
G1 X27.951 Y170.9 E100.90896
G1 X39.951 Y170.9 E102.34896
G1 X39.951 Y171 E102.36096
G1 X27.951 Y171 E102.72096
G1 X27.951 Y174.1 E103.09296
G1 X39.951 Y174.1 E104.53296
G1 X39.951 Y174.2 E104.54496
G1 X27.951 Y174.2 E104.90496
G1 X27.951 Y177.299 E105.27684
G1 X39.951 Y177.299 E106.71684
G1 X39.951 Y177.399 E106.72884
G1 X27.951 Y177.399 E107.08884
G1 X27.951 Y180.499 E107.46084
G1 X39.951 Y180.499 E108.90084
G1 X39.951 Y180.599 E108.91284
G1 X27.951 Y180.599 E109.27284
G1 X27.951 Y183.699 E109.64484
G1 X39.951 Y183.699 E111.08484
G1 X39.951 Y183.799 E111.09684
G1 X27.951 Y183.799 E111.45684
G1 X27.951 Y186.9 E111.82896
G1 X39.951 Y186.9 E113.26896
G1 X39.951 Y187 E113.28096
G1 X27.951 Y187 E113.64096
G1 X27.951 Y190.1 E114.01296
G1 X39.951 Y190.1 E115.45296
G1 X39.951 Y190.2 E115.46496
G1 X27.951 Y190.2 E115.82496
G1 X27.951 Y193.299 E116.19684
G1 X39.951 Y193.299 E117.63684
G1 X39.951 Y193.399 E117.64884
G1 X27.951 Y193.399 E118.00884
G1 X26.751 Y193.399 E118.15284
G1 X26.751 Y65.3 E133.52472
G1 X27.951 Y65.3 E133.66872
G1 X39.951 Y65.3 E135.10872
G1 X39.951 Y65.4 E135.12072
G1 X27.951 Y65.4 E135.48072
G10
G0 F6000 X27.481 Y65.77
G0 X27.523 Y192.971
G0 X27.523 Y195.139
G0 X38.622 Y195.928
G0 X61.278 Y195.928
G0 X73.61 Y193.727
G0 X75.778 Y193.727
G0 X75.82 Y193.769
G0 X75.75 Y193.699
;TYPE:WALL-INNER
G11
G1 F1200 X203.05 Y193.699 E150.75672
G1 X203.05 Y194.1 E150.80484
G1 X75.75 Y194.1 E166.08084
G1 X75.75 Y193.699 E166.12896
G0 F6000 X75.45 Y193.299
;TYPE:WALL-OUTER
G1 F1200 X78.55 Y193.299 E166.50096
G1 X78.55 Y181.299 E167.94096
G1 X78.65 Y181.299 E167.95296
G1 X78.65 Y193.299 E168.31296
G1 X81.75 Y193.299 E168.68496
G1 X81.75 Y181.299 E170.12496
G1 X81.85 Y181.299 E170.13696
G1 X81.85 Y193.299 E170.49696
G1 X84.95 Y193.299 E170.86896
G1 X84.95 Y181.299 E172.30896
G1 X85.05 Y181.299 E172.32096
G1 X85.05 Y193.299 E172.68096
G1 X88.151 Y193.299 E173.05308
G1 X88.151 Y181.299 E174.49308
G1 X88.251 Y181.299 E174.50508
G1 X88.251 Y193.299 E174.86508
G1 X91.35 Y193.299 E175.23696
G1 X91.35 Y181.299 E176.67696
G1 X91.45 Y181.299 E176.68896
G1 X91.45 Y193.299 E177.04896
G1 X94.55 Y193.299 E177.42096
G1 X94.55 Y181.299 E178.86096
G1 X94.65 Y181.299 E178.87296
G1 X94.65 Y193.299 E179.23296
G1 X97.751 Y193.299 E179.60508
G1 X97.751 Y181.299 E181.04508
G1 X97.851 Y181.299 E181.05708
G1 X97.851 Y193.299 E181.41708
G1 X100.95 Y193.299 E181.78896
G1 X100.95 Y181.299 E183.22896
G1 X101.05 Y181.299 E183.24096
G1 X101.05 Y193.299 E183.60096
G1 X104.151 Y193.299 E183.97308
G1 X104.151 Y181.299 E185.41308
G1 X104.251 Y181.299 E185.42508
G1 X104.251 Y193.299 E185.78508
G1 X107.35 Y193.299 E186.15696
G1 X107.35 Y181.299 E187.59696
G1 X107.45 Y181.299 E187.60896
G1 X107.45 Y193.299 E187.96896
G1 X110.55 Y193.299 E188.34096
G1 X110.55 Y181.299 E189.78096
G1 X110.65 Y181.299 E189.79296
G1 X110.65 Y193.299 E190.15296
G1 X113.75 Y193.299 E190.52496
G1 X113.75 Y181.299 E191.96496
G1 X113.85 Y181.299 E191.97696
G1 X113.85 Y193.299 E192.33696
G1 X116.949 Y193.299 E192.70884
G1 X116.949 Y181.299 E194.14884
G1 X117.049 Y181.299 E194.16084
G1 X117.049 Y193.299 E194.52084
G1 X120.15 Y193.299 E194.89296
G1 X120.15 Y181.299 E196.33296
G1 X120.25 Y181.299 E196.34496
G1 X120.25 Y193.299 E196.70496
G1 X123.349 Y193.299 E197.07684
G1 X123.349 Y181.299 E198.51684
G1 X123.449 Y181.299 E198.52884
G1 X123.449 Y193.299 E198.88884
G1 X126.549 Y193.299 E199.26084
G1 X126.549 Y181.299 E200.70084
G1 X126.649 Y181.299 E200.71284
G1 X126.649 Y193.299 E201.07284
G1 X129.749 Y193.299 E201.44484
G1 X129.749 Y181.299 E202.88484
G1 X129.849 Y181.299 E202.89684
G1 X129.849 Y193.299 E203.25684
G1 X132.95 Y193.299 E203.62896
G1 X132.95 Y181.294 E205.06956
G1 X132.989 Y181.294 E205.07424
G0 X132.989 Y181.299
G1 X133.05 Y181.299 E205.08131
G1 X133.05 Y193.299 E205.44108
G1 X136.15 Y193.299 E205.81308
G1 X136.15 Y181.294 E207.25368
G1 X136.229 Y181.294 E207.26316
G0 X136.229 Y181.299
G1 X136.25 Y181.299 E207.2654
G1 X136.25 Y193.299 E207.62517
M104 T1 S200
G1 X139.349 Y193.299 E207.99705
G1 X139.349 Y181.294 E209.43765
G1 X139.449 Y181.294 E209.44965
G1 X139.449 Y193.299 E209.8098
G1 X142.549 Y193.299 E210.1818
G1 X142.549 Y181.299 E211.6218
G1 X142.569 Y181.299 E211.6242
G0 X142.569 Y181.294
G1 X142.649 Y181.294 E211.63356
G1 X142.649 Y193.299 E211.99394
G1 X145.749 Y193.299 E212.36594
G1 X145.749 Y181.299 E213.80594
G1 X145.809 Y181.299 E213.81314
G0 X145.809 Y181.294
G1 X145.849 Y181.294 E213.81767
G1 X145.849 Y193.299 E214.17804
G1 X148.95 Y193.299 E214.55016
G1 X148.95 Y181.299 E215.99016
G1 X149.049 Y181.299 E216.00204
G1 X149.05 Y193.299 E216.36024
G1 X152.15 Y193.299 E216.73224
G1 X152.15 Y181.299 E218.17224
G1 X152.25 Y181.299 E218.18424
G1 X152.25 Y193.299 E218.54424
G1 X155.349 Y193.299 E218.91612
G1 X155.349 Y181.299 E220.35612
G1 X155.449 Y181.299 E220.36812
G1 X155.449 Y193.299 E220.72812
G1 X158.549 Y193.299 E221.10012
G1 X158.549 Y181.299 E222.54012
G1 X158.649 Y181.299 E222.55212
G1 X158.649 Y193.299 E222.91212
G1 X161.749 Y193.299 E223.28412
G1 X161.749 Y181.299 E224.72412
G1 X161.849 Y181.299 E224.73612
G1 X161.849 Y193.299 E225.09612
G1 X164.95 Y193.299 E225.46824
G1 X164.95 Y181.299 E226.90824
G1 X165.05 Y181.299 E226.92024
G1 X165.05 Y193.299 E227.28024
G1 X168.15 Y193.299 E227.65224
G1 X168.15 Y181.299 E229.09224
G1 X168.25 Y181.299 E229.10424
G1 X168.25 Y193.299 E229.46424
G1 X171.349 Y193.299 E229.83612
G1 X171.349 Y181.299 E231.27612
G1 X171.449 Y181.299 E231.28812
G1 X171.449 Y193.299 E231.64812
G1 X174.549 Y193.299 E232.02012
G1 X174.549 Y181.299 E233.46012
G1 X174.649 Y181.299 E233.47212
G1 X174.649 Y193.299 E233.83212
G1 X177.749 Y193.299 E234.20412
G1 X177.749 Y181.299 E235.64412
G1 X177.849 Y181.299 E235.65612
G1 X177.849 Y193.299 E236.01612
G1 X180.95 Y193.299 E236.38824
G1 X180.95 Y181.299 E237.82824
G1 X181.05 Y181.299 E237.84024
G1 X181.05 Y193.299 E238.20024
G1 X184.15 Y193.299 E238.57224
G1 X184.15 Y181.299 E240.01224
G1 X184.25 Y181.299 E240.02424
G1 X184.25 Y193.299 E240.38424
G1 X187.35 Y193.299 E240.75624
G1 X187.35 Y181.299 E242.19624
G1 X187.45 Y181.299 E242.20824
G1 X187.45 Y193.299 E242.56824
G1 X190.549 Y193.299 E242.94012
G1 X190.549 Y181.299 E244.38012
G1 X190.649 Y181.299 E244.39212
G1 X190.649 Y193.299 E244.75212
G1 X193.749 Y193.299 E245.12412
G1 X193.749 Y181.299 E246.56412
G1 X193.849 Y181.299 E246.57612
G1 X193.849 Y193.299 E246.93612
G1 X196.95 Y193.299 E247.30824
G1 X196.95 Y181.299 E248.74824
G1 X197.05 Y181.299 E248.76024
G1 X197.05 Y193.299 E249.12024
G1 X200.15 Y193.299 E249.49224
G1 X200.15 Y181.299 E250.93224
G1 X200.25 Y181.299 E250.94424
G1 X200.25 Y193.299 E251.30424
G1 X203.35 Y193.299 E251.67624
G1 X203.35 Y181.299 E253.11624
G1 X203.45 Y181.299 E253.12824
G1 X203.45 Y193.299 E253.48824
G1 X203.45 Y194.5 E253.63236
G1 X75.35 Y194.5 E269.00436
G1 X75.35 Y193.299 E269.14848
G1 X75.35 Y181.299 E270.58848
G1 X75.45 Y181.299 E270.60048
G1 X75.45 Y193.299 E270.96048
G0 F6000 X76.032 Y193.7
G10 S1
G92 E0
T1
G92 E0
M109 S200
G10
M104 T0 S125
G0 F6000.0 X53.15 Y193.8 Z0.3
;TYPE:WALL-INNER
G11
G1 F1200 X52.75 Y193.8 E0.048
G1 X52.75 Y64.9 E15.516
G1 X53.15 Y64.9 E15.564
G1 X53.15 Y193.8 E31.032
G0 F6000 X53.55 Y194.1
;TYPE:WALL-OUTER
G1 F1200 X59.55 Y194.1 E31.752
G1 X59.55 Y194.2 E31.764
G1 X53.55 Y194.2 E31.944
G1 X52.35 Y194.2 E32.088
G1 X40.35 Y194.2 E33.528
G1 X40.35 Y194.1 E33.54
G1 X52.35 Y194.1 E33.9
G1 X52.35 Y190.959 E34.27692
G1 X40.35 Y190.959 E35.71692
G1 X40.35 Y190.859 E35.72892
G1 X52.35 Y190.859 E36.08892
G1 X52.35 Y187.72 E36.4656
G1 X40.35 Y187.72 E37.9056
G1 X40.35 Y187.62 E37.9176
G1 X52.35 Y187.62 E38.2776
G1 X52.35 Y184.48 E38.6544
G1 X40.35 Y184.48 E40.0944
G1 X40.35 Y184.38 E40.1064
G1 X52.35 Y184.38 E40.4664
G1 X52.35 Y181.239 E40.84332
G1 X40.35 Y181.239 E42.28332
G1 X40.35 Y181.139 E42.29532
G1 X52.35 Y181.139 E42.65532
G1 X52.35 Y178 E43.032
G1 X40.35 Y178 E44.472
G1 X40.35 Y177.9 E44.484
G1 X52.35 Y177.9 E44.844
G1 X52.35 Y174.759 E45.22092
G1 X40.35 Y174.759 E46.66092
G1 X40.35 Y174.659 E46.67292
G1 X52.35 Y174.659 E47.03292
G1 X52.35 Y171.519 E47.40972
G1 X40.35 Y171.519 E48.84972
G1 X40.35 Y171.419 E48.86172
G1 X52.35 Y171.419 E49.22172
G1 X52.35 Y168.28 E49.5984
G1 X40.35 Y168.28 E51.0384
G1 X40.35 Y168.18 E51.0504
G1 X52.35 Y168.18 E51.4104
G1 X52.35 Y165.039 E51.78732
G1 X40.35 Y165.039 E53.22732
G1 X40.35 Y164.939 E53.23932
G1 X52.35 Y164.939 E53.59932
G1 X52.35 Y161.799 E53.97612
G1 X40.35 Y161.799 E55.41612
G1 X40.35 Y161.699 E55.42812
G1 X52.35 Y161.699 E55.78812
G1 X52.35 Y158.56 E56.1648
G1 X40.35 Y158.56 E57.6048
G1 X40.35 Y158.46 E57.6168
G1 X52.35 Y158.46 E57.9768
G1 X52.35 Y155.319 E58.35372
G1 X40.35 Y155.319 E59.79372
G1 X40.35 Y155.219 E59.80572
G1 X52.35 Y155.219 E60.16572
G1 X52.35 Y152.079 E60.54252
G1 X40.35 Y152.079 E61.98252
G1 X40.35 Y151.979 E61.99452
G1 X52.35 Y151.979 E62.35452
G1 X52.35 Y148.84 E62.7312
G1 X40.35 Y148.84 E64.1712
G1 X40.35 Y148.74 E64.1832
G1 X52.35 Y148.74 E64.5432
G1 X52.35 Y145.599 E64.92012
G1 X40.35 Y145.599 E66.36012
G1 X40.35 Y145.499 E66.37212
G1 X52.35 Y145.499 E66.73212
G1 X52.35 Y142.36 E67.1088
G1 X40.35 Y142.36 E68.5488
G1 X40.35 Y142.26 E68.5608
G1 X52.35 Y142.26 E68.9208
G1 X52.35 Y139.119 E69.29772
G1 X40.35 Y139.119 E70.73772
G1 X40.346 Y139.019 E70.74973
G1 X52.35 Y139.019 E71.11003
G1 X52.35 Y135.88 E71.48671
G1 X40.35 Y135.88 E72.92671
G1 X40.346 Y135.78 E72.93872
G1 X52.35 Y135.78 E73.29902
G1 X52.35 Y132.639 E73.67594
G1 X40.35 Y132.639 E75.11594
G1 X40.346 Y132.539 E75.12795
G1 X52.35 Y132.539 E75.48825
G1 X52.35 Y129.399 E75.86505
G1 X40.346 Y129.399 E77.30553
G1 X40.346 Y129.299 E77.31753
G1 X52.35 Y129.299 E77.67765
G1 X52.35 Y126.16 E78.05433
G1 X40.346 Y126.16 E79.49481
G1 X40.35 Y126.06 E79.50682
G1 X52.35 Y126.06 E79.86664
G1 X52.35 Y122.919 E80.24356
G1 X40.346 Y122.919 E81.68404
G1 X40.35 Y122.819 E81.69605
G1 X52.35 Y122.819 E82.05587
G1 X52.35 Y119.679 E82.43267
G1 X40.346 Y119.675 E83.87315
G1 X40.35 Y119.579 E83.88468
G1 X52.35 Y119.579 E84.2373
G1 X52.35 Y116.439 E84.6141
G1 X40.35 Y116.439 E86.0541
G1 X40.35 Y116.339 E86.0661
G1 X52.35 Y116.339 E86.4261
G1 X52.35 Y113.2 E86.80278
G1 X40.35 Y113.2 E88.24278
G1 X40.35 Y113.1 E88.25478
G1 X52.35 Y113.1 E88.61478
G1 X52.35 Y109.96 E88.99158
G1 X40.35 Y109.96 E90.43158
G1 X40.35 Y109.86 E90.44358
G1 X52.35 Y109.86 E90.80358
G1 X52.35 Y106.72 E91.18038
G1 X40.35 Y106.72 E92.62038
G1 X40.35 Y106.62 E92.63238
G1 X52.35 Y106.62 E92.99238
G1 X52.35 Y103.481 E93.36906
G1 X40.35 Y103.481 E94.80906
G1 X40.35 Y103.381 E94.82106
G1 X52.35 Y103.381 E95.18106
G1 X52.35 Y100.24 E95.55798
G1 X40.35 Y100.24 E96.99798
G1 X40.35 Y100.14 E97.00998
G1 X52.35 Y100.14 E97.36998
G1 X52.35 Y97 E97.74678
G1 X40.35 Y97 E99.18678
G1 X40.35 Y96.9 E99.19878
G1 X52.35 Y96.9 E99.55878
G1 X52.35 Y93.76 E99.93558
G1 X40.35 Y93.76 E101.37558
G1 X40.35 Y93.66 E101.38758
G1 X52.35 Y93.66 E101.74758
G1 X52.35 Y90.521 E102.12426
G1 X40.35 Y90.521 E103.56426
G1 X40.35 Y90.421 E103.57626
G1 X52.35 Y90.421 E103.93626
G1 X52.35 Y87.28 E104.31318
G1 X40.35 Y87.28 E105.75318
G1 X40.35 Y87.18 E105.76518
G1 X52.35 Y87.18 E106.12518
G1 X52.35 Y84.04 E106.50198
G1 X40.35 Y84.04 E107.94198
G1 X40.35 Y83.94 E107.95398
G1 X52.35 Y83.94 E108.31398
G1 X52.35 Y80.8 E108.69078
G1 X40.35 Y80.8 E110.13078
G1 X40.35 Y80.7 E110.14278
G1 X52.35 Y80.7 E110.50278
G1 X52.35 Y77.561 E110.87946
G1 X40.35 Y77.561 E112.31946
G1 X40.35 Y77.461 E112.33146
G1 X52.35 Y77.461 E112.69146
G1 X52.35 Y74.32 E113.06838
G1 X40.35 Y74.32 E114.50838
G1 X40.35 Y74.22 E114.52038
G1 X52.35 Y74.22 E114.88038
G1 X52.35 Y71.08 E115.25718
G1 X40.35 Y71.08 E116.69718
G1 X40.35 Y70.98 E116.70918
G1 X52.35 Y70.98 E117.06918
G1 X52.35 Y67.84 E117.44598
G1 X40.35 Y67.84 E118.88598
G1 X40.35 Y67.74 E118.89798
G1 X52.35 Y67.74 E119.25798
