;FLAVOR:UltiGCode
;TIME:1765
;MATERIAL:344
;MATERIAL2:241
;NOZZLE_DIAMETER:0.4
;POSTPROCESSED
;Generated with Cura_SteamEngine 3.4.1
M82 ;absolute extrusion mode

G92 E0
;LAYER_COUNT:25
;LAYER:0
M107

G0 F7200 X116.042 Y71.825 Z0.2
;TYPE:SKIRT
G1 F1080 E0
G1 F1200 X116.717 Y71.692 E0.04802
G1 X118.644 Y71.503 E0.18317
G1 X119.336 Y71.503 E0.23147
G1 X121.32 Y71.7 E0.37063
G1 X122.016 Y71.841 E0.4202
G1 X123.928 Y72.434 E0.55993
G1 X124.549 Y72.694 E0.60692
G1 X126.223 Y73.591 E0.73948
G1 X126.795 Y73.974 E0.78753
G1 X128.293 Y75.204 E0.92282
G1 X128.787 Y75.7 E0.97168
G1 X130.059 Y77.259 E1.11212
G1 X130.442 Y77.835 E1.1604
G1 X131.352 Y79.55 E1.29592
G1 X131.612 Y80.181 E1.34355
G1 X132.171 Y82.029 E1.47832
G1 X132.305 Y82.702 E1.52621
G1 X132.498 Y84.646 E1.66257
G1 X132.498 Y85.339 E1.71094
G1 X132.307 Y87.279 E1.84701
G1 X132.214 Y87.806 E1.88436
G1 X130.941 Y92.792 E2.24354
G1 X130.361 Y95.497 E2.43664
G1 X129.883 Y98.101 E2.62143
G1 X129.115 Y103.551 E3.0056
G1 X128.663 Y108.98 E3.38585
G1 X128.45 Y118.847 E4.07472
G1 X128.524 Y121.721 E4.27539
G1 X128.525 Y121.833 E4.28321
G1 X128.449 Y134.823 E5.18992
G1 X128.524 Y137.721 E5.39226
G1 X128.525 Y137.833 E5.40008
G1 X128.449 Y150.823 E6.30679
G1 X128.524 Y153.721 E6.50914
G1 X128.525 Y153.833 E6.51695
G1 X128.449 Y166.823 E7.42366
G1 X128.524 Y169.721 E7.62601
G1 X128.525 Y169.817 E7.63271
G1 X128.515 Y177.496 E8.1687
G1 X128.474 Y178.025 E8.20573
G1 X128.355 Y178.542 E8.24276
G1 X128.159 Y179.035 E8.2798
G1 X127.891 Y179.493 E8.31683
G1 X127.558 Y179.906 E8.35386
G1 X127.166 Y180.264 E8.39092
G1 X126.725 Y180.559 E8.42795
G1 X126.245 Y180.785 E8.46498
G1 X125.736 Y180.936 E8.50204
G1 X124.99 Y181.016 E8.55441
G1 X113.009 Y181.016 E9.39068
G1 X112.48 Y180.976 E9.42771
G1 X111.963 Y180.857 E9.46474
G1 X111.469 Y180.662 E9.50181
G1 X111.011 Y180.395 E9.53881
G1 X110.597 Y180.062 E9.5759
G1 X110.239 Y179.671 E9.6129
G1 X109.943 Y179.23 E9.64997
G1 X109.717 Y178.75 E9.687
G1 X109.565 Y178.242 E9.72401
G1 X109.484 Y177.492 E9.77667
G1 X109.475 Y114.315 E14.18638
G1 X109.318 Y108.783 E14.57267
G1 X108.858 Y103.367 E14.95206
G1 X108.086 Y97.949 E15.33405
G1 X107.009 Y92.576 E15.71654
G1 X106.379 Y90.009 E15.90104
G1 X105.793 Y87.833 E16.05833
G1 X105.687 Y87.245 E16.10003
G1 X105.503 Y85.283 E16.23758
G1 X105.505 Y84.603 E16.28505
G1 X105.696 Y82.692 E16.4191
G1 X105.831 Y82.02 E16.46694
G1 X106.397 Y80.153 E16.60311
G1 X106.662 Y79.513 E16.65146
G1 X107.591 Y77.777 E16.78889
G1 X107.975 Y77.203 E16.83709
G1 X109.204 Y75.706 E16.97229
G1 X109.7 Y75.211 E17.0212
G1 X111.26 Y73.939 E17.16169
G1 X111.836 Y73.557 E17.20994
G1 X113.551 Y72.647 E17.34545
G1 X114.184 Y72.386 E17.39324
G1 X116.042 Y71.825 E17.52871
G0 F7200 X116.143 Y72.161
G1 F1200 X116.751 Y72.04 E17.57198
G1 X118.678 Y71.851 E17.70713
G1 X119.302 Y71.852 E17.75068
G1 X121.286 Y72.049 E17.88985
G1 X121.913 Y72.176 E17.9345
G1 X123.825 Y72.769 E18.07423
G1 X124.384 Y73.002 E18.1165
G1 X126.058 Y73.899 E18.24906
G1 X126.573 Y74.244 E18.29233
G1 X128.071 Y75.474 E18.42762
G1 X128.516 Y75.921 E18.47164
G1 X129.788 Y77.48 E18.61209
G1 X130.133 Y77.999 E18.65559
G1 X131.043 Y79.714 E18.7911
G1 X131.277 Y80.283 E18.83404
G1 X131.836 Y82.131 E18.9688
G1 X131.956 Y82.736 E19.01185
G1 X132.149 Y84.68 E19.14821
G1 X132.15 Y85.305 E19.19184
G1 X131.959 Y87.245 E19.3279
G1 X131.875 Y87.72 E19.36157
G1 X130.594 Y92.736 E19.72292
G1 X130.023 Y95.397 E19.91289
G1 X129.535 Y98.062 E20.10199
G1 X128.767 Y103.508 E20.48588
G1 X128.313 Y108.96 E20.86774
G1 X128.1 Y118.848 E21.55808
G1 X128.174 Y121.73 E21.75931
G1 X128.175 Y121.83 E21.76629
G1 X128.099 Y134.83 E22.6737
G1 X128.174 Y137.73 E22.87618
G1 X128.175 Y137.83 E22.88316
G1 X128.099 Y150.83 E23.79057
G1 X128.174 Y153.73 E23.99305
G1 X128.175 Y153.83 E24.00003
G1 X128.099 Y166.83 E24.90744
G1 X128.174 Y169.73 E25.10993
G1 X128.175 Y169.816 E25.11593
G1 X128.165 Y177.495 E25.65192
G1 X128.124 Y177.997 E25.68708
G1 X128.005 Y178.486 E25.7222
G1 X127.81 Y178.95 E25.75733
G1 X127.543 Y179.378 E25.79254
G1 X127.213 Y179.758 E25.82767
G1 X126.827 Y180.081 E25.86281
G1 X126.394 Y180.339 E25.89799
G1 X125.926 Y180.525 E25.93314
G1 X125.435 Y180.635 E25.96826
G1 X124.99 Y180.666 E25.9994
G1 X113.009 Y180.666 E26.83566
G1 X112.507 Y180.626 E26.87081
G1 X112.018 Y180.507 E26.90594
G1 X111.553 Y180.313 E26.94111
G1 X111.125 Y180.047 E26.97628
G1 X110.745 Y179.717 E27.01141
G1 X110.422 Y179.331 E27.04654
G1 X110.163 Y178.899 E27.0817
G1 X109.976 Y178.431 E27.11688
G1 X109.866 Y177.94 E27.152
G1 X109.834 Y177.491 E27.18342
G1 X109.825 Y114.305 E31.59376
G1 X109.669 Y108.778 E31.97969
G1 X109.204 Y103.307 E32.36294
G1 X108.433 Y97.9 E32.74416
G1 X107.353 Y92.514 E33.12759
G1 X106.708 Y89.883 E33.31667
G1 X106.131 Y87.742 E33.47144
G1 X106.036 Y87.212 E33.50902
G1 X105.852 Y85.25 E33.64657
G1 X105.854 Y84.638 E33.68929
G1 X106.045 Y82.727 E33.82334
G1 X106.166 Y82.122 E33.8664
G1 X106.732 Y80.255 E34.00257
G1 X106.971 Y79.678 E34.04617
G1 X107.9 Y77.942 E34.1836
G1 X108.245 Y77.425 E34.22698
G1 X109.474 Y75.928 E34.36217
G1 X109.922 Y75.482 E34.4063
G1 X111.482 Y74.21 E34.54679
G1 X112 Y73.866 E34.59019
G1 X113.715 Y72.956 E34.72571
G1 X114.285 Y72.722 E34.76872
G1 X116.143 Y72.161 E34.90419
G1 F1080 E28.40419
G0 F7200 X116.143 Y104.804
G0 X116.143 Y106.045
G0 X116.1 Y174.525
;TYPE:WALL-INNER
G1 F1080 E34.90419
G1 F1200 X115.975 Y174.525 E34.91291
G1 X115.975 Y108.475 E39.52316
G1 X116.1 Y108.475 E39.53188
G1 X116.1 Y174.525 E41.1784
G0 F7200 X116.45 Y174.875
G1 F1200 X115.625 Y174.875 E41.23598
G1 X115.625 Y108.125 E45.89509
G1 X116.45 Y108.125 E45.95267
G1 X116.45 Y174.875 E50.61178
G0 F7200 X116.8 Y175.225
G1 F1200 X115.275 Y175.225 E50.71822
G1 X115.275 Y107.775 E55.42619
G1 X116.8 Y107.775 E55.53263
G1 X116.8 Y175.225 E60.2406
G0 F7200 X117.15 Y175.575
G1 F1200 X114.925 Y175.575 E60.3959
G1 X114.925 Y107.425 E65.15272
G1 X117.15 Y107.425 E65.30803
G1 X117.15 Y175.575 E70.06485
G0 F7200 X117.5 Y175.925
G1 F1200 X114.575 Y175.925 E70.26902
G1 X114.575 Y107.075 E75.0747
G1 X117.5 Y107.075 E75.27886
G1 X117.5 Y175.925 E80.08455
G0 F7200 X117.85 Y176.275
G1 F1200 X114.225 Y176.275 E80.33757
G1 X114.225 Y106.725 E85.19211
G1 X117.85 Y106.725 E85.44514
G1 X117.85 Y176.275 E90.29968
G0 F7200 X118.2 Y176.625
G1 F1200 X113.875 Y176.625 E90.60156
G1 X113.875 Y106.375 E95.50496
G1 X118.2 Y106.375 E95.80685
G1 X118.2 Y176.625 E100.71025
G0 F7200 X118.55 Y176.975

G1 F1200 X113.525 Y176.975 E101.06099
G1 X113.525 Y106.025 E106.01325
G1 X118.55 Y106.025 E106.364
G1 X118.55 Y176.975 E111.31626
G0 F7200 X118.875 Y177.3

;TYPE:WALL-OUTER
G1 F1200 X113.2 Y177.3 E111.71237
G1 X113.2 Y105.7 E116.71
G1 X118.875 Y105.7 E117.10611
G1 X118.875 Y177.3 E122.10374
G0 F7200 X118.675 Y177.3
G0 X118.2 Y176.728
G1 F1080 E115.60374
G92 E0
T1
G92 E0


G0 F7200.0 X113.009 Y181.366 Z0.2
;TYPE:SKIRT
G1 F1080 E0
G1 F1200 X112.454 Y181.326 E0.03884
G1 X111.91 Y181.207 E0.07771
G1 X111.39 Y181.011 E0.1165
G1 X110.902 Y180.743 E0.15536
G1 X110.458 Y180.408 E0.19418
G1 X110.067 Y180.012 E0.23302
G1 X109.736 Y179.565 E0.27185
G1 X109.472 Y179.075 E0.3107
G1 X109.282 Y178.552 E0.34954
G1 X109.169 Y178.007 E0.38838
G1 X109.134 Y177.492 E0.42441
G1 X109.125 Y114.29 E4.83587
G1 X108.97 Y108.821 E5.21776
G1 X108.509 Y103.396 E5.59778
G1 X107.742 Y98.013 E5.97731
G1 X106.668 Y92.655 E6.35873
G1 X106.041 Y90.1 E6.54236
G1 X105.455 Y87.924 E6.69966
G1 X105.339 Y87.278 E6.74547
G1 X105.155 Y85.316 E6.88301
G1 X105.157 Y84.569 E6.93515
G1 X105.348 Y82.658 E7.06921
G1 X105.496 Y81.919 E7.12181
G1 X106.062 Y80.052 E7.25798
G1 X106.353 Y79.348 E7.31116
G1 X107.282 Y77.612 E7.44859
G1 X107.704 Y76.981 E7.50157
G1 X108.933 Y75.484 E7.63676
G1 X109.479 Y74.94 E7.69056
G1 X111.039 Y73.668 E7.83106
G1 X111.672 Y73.248 E7.88408
G1 X113.387 Y72.338 E8.01959
G1 X114.083 Y72.051 E8.07214
G1 X115.941 Y71.49 E8.20761
G1 X116.683 Y71.344 E8.2604
G1 X118.61 Y71.155 E8.39555
G1 X119.371 Y71.155 E8.44866
G1 X121.355 Y71.352 E8.58783
G1 X122.12 Y71.507 E8.64231
G1 X124.032 Y72.1 E8.78204
G1 X124.714 Y72.385 E8.83363
G1 X126.388 Y73.282 E8.96619
G1 X127.017 Y73.703 E9.01902
G1 X128.515 Y74.933 E9.15431
G1 X129.058 Y75.478 E9.20801
G1 X130.33 Y77.037 E9.34845
G1 X130.751 Y77.671 E9.40157
G1 X131.661 Y79.386 E9.53708
G1 X131.947 Y80.08 E9.58948
G1 X132.506 Y81.928 E9.72424
G1 X132.653 Y82.667 E9.77683
G1 X132.846 Y84.611 E9.91319
G1 X132.846 Y85.374 E9.96645
G1 X132.655 Y87.314 E10.10251
G1 X132.554 Y87.893 E10.14353
G1 X131.274 Y92.903 E10.50446
G1 X130.704 Y95.565 E10.69448
G1 X130.227 Y98.163 E10.87885
G1 X129.465 Y103.577 E11.26047
G1 X129.012 Y109 E11.64031
G1 X128.8 Y118.845 E12.32764
G1 X128.874 Y121.712 E12.52782
G1 X128.875 Y121.835 E12.53641
G1 X128.799 Y134.816 E13.44249
G1 X128.874 Y137.712 E13.6447
G1 X128.875 Y137.835 E13.65328
G1 X128.799 Y150.816 E14.55936
G1 X128.874 Y153.712 E14.76157
G1 X128.875 Y153.835 E14.77015
G1 X128.799 Y166.816 E15.67623
G1 X128.874 Y169.712 E15.87844
G1 X128.875 Y169.817 E15.88577
G1 X128.865 Y177.496 E16.42176
G1 X128.824 Y178.051 E16.4606
G1 X128.705 Y178.594 E16.49941
G1 X128.508 Y179.115 E16.53828
G1 X128.239 Y179.602 E16.57712
G1 X127.904 Y180.046 E16.61594
G1 X127.508 Y180.437 E16.65478
G1 X127.06 Y180.767 E16.69362
G1 X126.569 Y181.03 E16.7325
G1 X126.046 Y181.219 E16.77131
G1 X125.501 Y181.332 E16.81016
G1 X124.99 Y181.366 E16.84591
G1 X113.009 Y181.366 E17.68218
G1 F1080 E11.18218
G0 F7200 X112.316 Y178.184
G0 X112.316 Y104.816
G0 X119 Y94.824
;TYPE:SUPPORT
G1 F1080 E17.68218
G1 F1200 X117.082 Y94.635 E17.8167
G1 X115.239 Y94.076 E17.95113
G1 X113.543 Y93.169 E18.08537
G1 X112.052 Y91.947 E18.21993
G1 X110.83 Y90.456 E18.35449
G1 X109.923 Y88.76 E18.48873
G1 X109.364 Y86.917 E18.62316
G1 X109.176 Y85 E18.75761
G1 X109.364 Y83.082 E18.89212
G1 X109.923 Y81.239 E19.02655
G1 X110.83 Y79.543 E19.1608
G1 X112.052 Y78.052 E19.29535
G1 X113.543 Y76.83 E19.42991
G1 X115.239 Y75.923 E19.56416
G1 X117.082 Y75.364 E19.69858
G1 X119 Y75.176 E19.8331
G1 X120.917 Y75.364 E19.96755
G1 X122.76 Y75.923 E20.10198
G1 X124.456 Y76.83 E20.23622
G1 X125.947 Y78.052 E20.37078
G1 X127.169 Y79.543 E20.50534
G1 X128.076 Y81.239 E20.63958
G1 X128.635 Y83.082 E20.77401
G1 X128.824 Y85 E20.90853
G1 X128.635 Y86.917 E21.04299
G1 X128.076 Y88.76 E21.17741
G1 X127.169 Y90.456 E21.31166
G1 X125.947 Y91.947 E21.44622
G1 X124.456 Y93.169 E21.58078
G1 X122.76 Y94.076 E21.71502
G1 X120.917 Y94.635 E21.84945
G1 X119 Y94.824 E21.9839
G0 F7200 X119 Y94.532
G1 F1200 X117.139 Y94.348 E22.11443
G1 X115.351 Y93.806 E22.24484
G1 X113.706 Y92.927 E22.37502
G1 X112.259 Y91.74 E22.50566
G1 X111.072 Y90.293 E22.63629
G1 X110.193 Y88.648 E22.76648
G1 X109.651 Y86.86 E22.89689
G1 X109.468 Y85 E23.02734
G1 X109.651 Y83.139 E23.15786
G1 X110.193 Y81.351 E23.28827
G1 X111.072 Y79.706 E23.41846
G1 X112.259 Y78.259 E23.54909
G1 X113.706 Y77.072 E23.67973
G1 X115.351 Y76.193 E23.80991
G1 X117.139 Y75.651 E23.94032
G1 X119 Y75.468 E24.07084
G1 X120.86 Y75.651 E24.20129
G1 X122.648 Y76.193 E24.3317
G1 X124.293 Y77.072 E24.46189
G1 X125.74 Y78.259 E24.59252
G1 X126.927 Y79.706 E24.72316
G1 X127.806 Y81.351 E24.85334
G1 X128.348 Y83.139 E24.98375
G1 X128.532 Y85 E25.11428
G1 X128.348 Y86.86 E25.24474
G1 X127.806 Y88.648 E25.37515
G1 X126.927 Y90.293 E25.50533
G1 X125.74 Y91.74 E25.63597
G1 X124.293 Y92.927 E25.7666
G1 X122.648 Y93.806 E25.89679
G1 X120.86 Y94.348 E26.0272
G1 X119 Y94.532 E26.15766
G0 F7200 X119 Y94.181
G1 F1200 X117.21 Y94.004 E26.28321
G1 X115.486 Y93.481 E26.40896
G1 X113.902 Y92.634 E26.53433
G1 X112.508 Y91.491 E26.66016
G1 X111.365 Y90.097 E26.78598
G1 X110.518 Y88.513 E26.91136
G1 X109.995 Y86.789 E27.03711
G1 X109.819 Y85 E27.16258
G1 X109.995 Y83.21 E27.28813
G1 X110.518 Y81.486 E27.41388
G1 X111.365 Y79.902 E27.53925
G1 X112.508 Y78.508 E27.66508
G1 X113.902 Y77.365 E27.79091
G1 X115.486 Y76.518 E27.91628
G1 X117.21 Y75.995 E28.04203
G1 X119 Y75.819 E28.16757
G1 X120.789 Y75.995 E28.29305
G1 X122.513 Y76.518 E28.4188
G1 X124.097 Y77.365 E28.54417
G1 X125.491 Y78.508 E28.67
G1 X126.634 Y79.902 E28.79583
G1 X127.481 Y81.486 E28.9212
G1 X128.004 Y83.21 E29.04695
G1 X128.181 Y85 E29.1725
G1 X128.004 Y86.789 E29.29798
G1 X127.481 Y88.513 E29.42373
G1 X126.634 Y90.097 E29.54911
G1 X125.491 Y91.491 E29.67493
G1 X124.097 Y92.634 E29.80076
G1 X122.513 Y93.481 E29.92614
G1 X120.789 Y94.004 E30.05189
G1 X119 Y94.181 E30.17737
G0 F7200 X119 Y93.83
G1 F1200 X117.281 Y93.66 E30.29794
G1 X115.621 Y93.156 E30.41903
G1 X114.098 Y92.341 E30.5396
G1 X112.757 Y91.242 E30.66061
G1 X111.658 Y89.901 E30.78163
G1 X110.843 Y88.378 E30.9022
G1 X110.339 Y86.718 E31.02329
G1 X110.17 Y85 E31.14378
G1 X110.339 Y83.281 E31.26435
G1 X110.843 Y81.621 E31.38544
G1 X111.658 Y80.098 E31.50601
G1 X112.757 Y78.757 E31.62702
G1 X114.098 Y77.658 E31.74804
G1 X115.621 Y76.843 E31.86861
G1 X117.281 Y76.339 E31.9897
G1 X119 Y76.17 E32.11026
G1 X120.718 Y76.339 E32.23076
G1 X122.378 Y76.843 E32.35185
G1 X123.901 Y77.658 E32.47242
G1 X125.242 Y78.757 E32.59343
G1 X126.341 Y80.098 E32.71445
G1 X127.156 Y81.621 E32.83502
G1 X127.66 Y83.281 E32.95611
G1 X127.83 Y85 E33.07668
G1 X127.66 Y86.718 E33.19718
G1 X127.156 Y88.378 E33.31827
G1 X126.341 Y89.901 E33.43884
G1 X125.242 Y91.242 E33.55986
G1 X123.901 Y92.341 E33.68088
G1 X122.378 Y93.156 E33.80144
G1 X120.718 Y93.66 E33.92253
G1 X119 Y93.83 E34.04303
G0 F7200 X119 Y93.479
G1 F1200 X117.352 Y93.316 E34.15863
G1 X115.756 Y92.831 E34.27506
G1 X114.294 Y92.048 E34.39082
G1 X113.006 Y90.993 E34.50703
G1 X111.951 Y89.705 E34.62324
G1 X111.168 Y88.243 E34.739
G1 X110.683 Y86.647 E34.85543
G1 X110.521 Y85 E34.97094
G1 X110.683 Y83.352 E35.08652
G1 X111.168 Y81.756 E35.20295
G1 X111.951 Y80.294 E35.31871
G1 X113.006 Y79.006 E35.43493
G1 X114.294 Y77.951 E35.55114
G1 X115.756 Y77.168 E35.6669
G1 X117.352 Y76.683 E35.78333
G1 X119 Y76.521 E35.89891
G1 X120.647 Y76.683 E36.01442
G1 X122.243 Y77.168 E36.13085
G1 X123.705 Y77.951 E36.24661
G1 X124.993 Y79.006 E36.36282
G1 X126.048 Y80.294 E36.47904
G1 X126.831 Y81.756 E36.5948
G1 X127.316 Y83.352 E36.71123
G1 X127.479 Y85 E36.82682
G1 X127.316 Y86.647 E36.94234
G1 X126.831 Y88.243 E37.05877
G1 X126.048 Y89.705 E37.17453
G1 X124.993 Y90.993 E37.29074
G1 X123.705 Y92.048 E37.40695
G1 X122.243 Y92.831 E37.52271
G1 X120.647 Y93.316 E37.63914
G1 X119 Y93.479 E37.75466
G0 F7200 X119 Y93.128
G1 F1200 X117.423 Y92.972 E37.86527
G1 X115.891 Y92.506 E37.97704
G1 X114.49 Y91.755 E38.08799
G1 X113.255 Y90.744 E38.1994
G1 X112.244 Y89.509 E38.3108
G1 X111.493 Y88.108 E38.42175
G1 X111.027 Y86.576 E38.53352
G1 X110.872 Y85 E38.64406
G1 X111.027 Y83.423 E38.75466
G1 X111.493 Y81.891 E38.86643
G1 X112.244 Y80.49 E38.97738
G1 X113.255 Y79.255 E39.08878
G1 X114.49 Y78.244 E39.20019
G1 X115.891 Y77.493 E39.31114
G1 X117.423 Y77.027 E39.42291
G1 X119 Y76.872 E39.53351
G1 X120.576 Y77.027 E39.64405
G1 X122.108 Y77.493 E39.75582
G1 X123.509 Y78.244 E39.86677
G1 X124.744 Y79.255 E39.97817
G1 X125.755 Y80.49 E40.08958
G1 X126.506 Y81.891 E40.20053
G1 X126.972 Y83.423 E40.3123
G1 X127.128 Y85 E40.42291
G1 X126.972 Y86.576 E40.53345
G1 X126.506 Y88.108 E40.64522
G1 X125.755 Y89.509 E40.75617
G1 X124.744 Y90.744 E40.86758
G1 X123.509 Y91.755 E40.97898
G1 X122.108 Y92.506 E41.08993
G1 X120.576 Y92.972 E41.2017
G1 X119 Y93.128 E41.31224
G0 F7200 X119 Y92.777
G1 F1200 X117.494 Y92.628 E41.41787
G1 X116.022 Y92.18 E41.52527
G1 X114.689 Y91.465 E41.63085
G1 X113.504 Y90.495 E41.73774
G1 X112.534 Y89.31 E41.84463
G1 X111.819 Y87.977 E41.95021
G1 X111.371 Y86.505 E42.05761
G1 X111.223 Y85 E42.16317
G1 X111.371 Y83.494 E42.26879
G1 X111.819 Y82.022 E42.37619
G1 X112.534 Y80.689 E42.48177
G1 X113.504 Y79.504 E42.58866
G1 X114.689 Y78.534 E42.69555
G1 X116.022 Y77.819 E42.80113
G1 X117.494 Y77.371 E42.90853
G1 X119 Y77.223 E43.01415
G1 X120.505 Y77.371 E43.11971
G1 X121.977 Y77.819 E43.2271
G1 X123.31 Y78.534 E43.33269
G1 X124.495 Y79.504 E43.43958
G1 X125.465 Y80.689 E43.54647
G1 X126.18 Y82.022 E43.65205
G1 X126.628 Y83.494 E43.75944
G1 X126.777 Y85 E43.86508
G1 X126.628 Y86.505 E43.97064
